X:65
T:Hunchback,The. WI.065
M:2/4
L:1/16
Q:1/4=100
S:Wm Irwin, Folio MS, c1850. AGG’s Transcription
R:.Misc.
O:England
A:Lake District
Z:vmp.Chris Partington.2005
K:Bb
f2{g}f=e f2{g}f=e|f2{g}f=e f2d2|e2{f}ed ecAc|Bcde fgab|!
f2{g}f=e f2{g}f=e|f2{g}f=e f2d2|e2{f}ed ecAc|” ‘etc..'”B2d2B4||!
K:Eb
G4 A2=A2|B2e2 g4|{g}fefg af_ed|” ‘etc..'”egfe dcBA|zzzz|]

